X:1
T:Chanson Groënlandaise
T:Cécile Chaminade
T:Chanson Groënlandaise Greenlandic Song 
T:Jules Verne
T:OpenScore (CC0)
T:OpenScore (CC0)
T:OpenScore (CC0)
T:OpenScore (CC0)
T:OpenScore (CC0)
T:OpenScore (CC0)
C:Cécile Chaminade
Z:Jules Verne
Z:OpenScore (CC0)
%%score ( 1 2 ) { ( 3 5 ) | ( 4 6 ) }
L:1/8
Q:1/4=114
M:2/4
K:C
V:1 treble nm="Voice\nChant"
V:2 treble 
V:3 treble nm="Piano"
V:5 treble 
V:4 bass 
V:6 bass 
V:1
"^(\n)\n""^Moderato" z | z4 | z4 | z4 | z4 |"^Vibrato" z E D (E/F/) | E A B c/B/ | A E =G2- | %8
w: |||||Le ciel est _|noir Et le so- *|\- leil se traî-|
w: |||||The sky is _|dark, and as it _|drags its way,|
 G C (DE/F/) | E2 z"^cresc." E | D (E/F/) E A | _B (c/B/) A G | G3 F | %13
w: * neÀ pei- * *|ne! De|de- ses- * poir Ma|pauvre â- me in- cer-|tai- neEst|
w: _ The sun is _|chill'd: With|deep de * spair and|bit- ter- * ness to-|day My|
"^poco rit." (EC/=B,/)"^portando" (!-(!A,2 || %14
w: plei- * * ne!|
w: soul is _ fill'd!|
[M:3/4]!p!"^dolce""^a tempo" !-)!A) G/ A/ !breath!G3 G | A G A G A =B |!>(! (cB/)c/ B3!>)!!f! B | %17
w: La blonde en- fant se|rit de mes ten- dres chan-|sons _ _ _ Et|
w: Love, whom I seek, but|shakes his head with laugh- ter|low; _ _ _ Up-|
 e e e (d/c/) d A | (c2 d)"^rit." A c (B/A/) |"^a tempo." A6- | A4 z2 ||[M:2/4] z4 | z4 | z4 | z4 | %25
w: sur son coeur l'hi- ver pro- *|mè- * ne ses gla- *|\- çons!|_|||||
w: on his heart has _ win- ter|spread _ Her ice and _|snow!|_|||||
"^vibrato."!p! z E D (E/F/) | E A B (c/B/) | A E =G2- | G C (DE/F/) | E2 z E | D (E/F/) E A | %31
w: An- ge rê- *|vé, ton a- mour *|qui fait vi-|\- vre M'en- i- * *|vre, Et|j'ai bra- * vé Pour|
w: O best be- *|lov'd, it is thy _|love that giv-|eth My life to _|me; And|I have _ brav'd for|
 _B (c/B/) A G | G2- G F |"^poco rit.                portando." (EC/=B,/) (!-(!A,2 || %34
w: te voir, * pour te|sui- vre, Le|gi- * * vre!|
w: thee the _ frost that|liv- eth To|fol- low _ thee!|
[M:3/4]!p![Q:1/4=80]"^a tempo" !-)!A) (G/A/) G3 G |"^cresc." A G A G/ G/ A B/ B/ | %36
w: Hé- las! _ _ sous|mes bai- sers et leur dou- ce cha-|
w: On- ly, a- las! in|vain my ten- der and pas- sion- ate|
 (cB/c/ B3)!f! B | e e e (d/c/) d A | ((c2 d))"^rit." A c (B/A/) | A6- | A4 z2 ||[M:2/4] z4 | z4 | %43
w: leur _ _ _ Je|n'ai pu dis- si- * per les|nei- * ges de ton *|coeur!|_|||
w: art, _ _ _ I|can- not scat- ter _ yet the|snows _ of thy cold *|heart!|_|||
 z4 | z4 |"^vibrato" z E D (E/F/) | E A B (c/B/) | A E =G2- | G C (DE/F/) | E2 z E | %50
w: ||Ah! que de- *|main À ton â- *|me con- vien-|ne La mien- * *|ne, Et|
w: ||But ah! to- *|mor- row to that _|soul of thine|_ Shall speak mine _|own, Thy|
"^cresc." D (E/F/) E A | _B (c/B/) (A E) | G2- !breath!G F | %53
w: que ma- * main A-|mou- reuse- * ment _|tien- ne La|
w: hand shall * ling- er|ten- der- ly in _|mine _ And|
"^poco rit.                portando." (EC/=B,/) (!-(!A,2 || %54
w: tien- * * ne!|
w: love be _ known!|
[M:3/4]"^a tempo""^dolce" !-)!A) (G/A/) G3 G/"^cresc." G/ | A G A G A =B | %56
w: Le so- * leil bril- le-|ra l'à- haut dauns no- tre|
w: On- ly the sun once a-|gain shall shine in Heav'n a-|
"^cresc." (cB/c/ B3)!f! B | e e (ed/c/) (dA) | !breath!c2 d A c"^dim." B/ A/ | %59
w: ciel, _ _ _ Et|de ton coeur _ _ l'a- *|\- mour for- ce- ra le dé-|
w: bove, _ _ _ And|thy heart shall for- * get its|snow, and a- wak- en to|
"^a tempo.  dim." (A6- |!p! (A6 ||[M:2/4] E2-) E) z | z4 | z4 | z4 | z4 |] %66
w: gel!|_||||||
w: love!|_||||||
V:2
 x | x4 | x4 | x4 | x4 | x4 | x4 | x4 | x2 D (E/F/) | x4 | x4 | x4 | x4 | E (C/B,/) x2 || %14
[M:3/4] x6 | x6 | x6 | x6 | x6 | x6 | x6 ||[M:2/4] x4 | x4 | x4 | x4 | x4 | x4 | x4 | x2 D (E/F/) | %29
 E2 x2 | x4 | x4 | x4 | E (C/B,/) A,2 ||[M:3/4] x G/ A/ G3 x | x6 | x6 | x6 | x6 | x6 | x6 || %41
[M:2/4] x4 | x4 | x4 | x4 | x4 | x4 | x4 | x2 D (E/F/ | E2) x2 | x4 | x4 | x4 | E (C/B,/) A,2 || %54
[M:3/4] x G/ A/ G3 x | z6 | x6 | x2 e (d/c/) d A | x6 | x6 | x6 ||[M:2/4] x4 | x4 | x4 | x4 | x4 |] %66
V:3
!p! z | z2 .[DFA].[DFA] | (^GA/B/ [CE]2) | ([B,D][CE]/[DF]/ .[EG]/.[DF]/.[CE]/.[B,D]/) | %4
 .[A,C][I:staff +1][D,^G,B,][I:staff -1] z2 | %5
"_legatissimo" z z/ [A,C]/ z/ (!tenuto![B,DA]!tenuto![B,DA]/) | %6
 z/ (!tenuto![CEA]!tenuto![CEA]/) z/ (!tenuto![DE^G]!tenuto![DEG]/) | %7
 z/ (!tenuto![CEA]!tenuto![CEA]/) z/ (!tenuto![CE=G]!tenuto![CEG]/) | %8
 z/ (!tenuto![CEG]!tenuto![CEG]/) z/ (!tenuto![B,FG]!tenuto![B,FG]/) | %9
 z/ (!tenuto![B,E^G]!tenuto![B,EG]/) z/"_poco cresc." (!tenuto![^CEA]!tenuto![CEA]/) | %10
 z/ (!tenuto![DF_B]!tenuto![DFB]/) z/ (!tenuto![^CEA]!tenuto![CEA]/) | %11
 z/ (!tenuto![EGd]!tenuto![EGd]/) z/ (!tenuto![EA^c]!tenuto![EAc]/) | %12
 z/ (!tenuto![^CE_B]!tenuto![CEB]/) z/ (!tenuto![DFA]!tenuto![DFA]/) | %13
 z/ (!tenuto![^G,DE]!tenuto![G,DE]/) z/ (!tenuto![A,CE]!tenuto![A,CE]/) || %14
[M:3/4] ([FA]/C/[EG]/[FA]/) G3 G | ([FA]/A,/[EG]/_B,/) ([FA]/A,/[EG]/B,/) ([FA]/A,/[_A=B]/=D/) | %16
 ([=Ac]/E/[^GB]/[Ac]/) B3 B |!f! !>!e2 !>!e2 !>!d2 | !>!c2 !>!d2 E2 | %19
"_a tempo.""^marcato." AA (AG/F/ GE) | %20
{/G} FE/D/"_dim." .E/.D/.C/.B,/[I:staff +1] .A,/.G,/.F,/[I:staff -1] x/ || %21
[M:2/4]!p! z2 .[DFA].[DFA] | (^GA/B/ [CE]2) | ([B,D].[CE]/.[DF]/ .[EG]/.[DF]/.[CE]/.[B,D]/) | %24
 .[A,C][I:staff +1][D,^G,B,][I:staff -1] z2 | %25
"_legatissimo" z z/ [CE]/ z/ (!tenuto![B,DA]!tenuto![B,DA]/) | %26
 z/ (!tenuto![CEA]!tenuto![CEA]/) z/ (!tenuto![DE^G]!tenuto![DEG]/) | %27
 z/ (!tenuto![CEA]!tenuto![CEA]/) z/ (!tenuto![CE=G]!tenuto![CEG]/) | %28
 z/ (!tenuto![CEG]!tenuto![CEG]/) z/ (!tenuto![B,FG]!tenuto![B,FG]/) | %29
 z/ (!tenuto![B,E^G]!tenuto![B,EG]/) z/ (!tenuto![^CEA]!tenuto![CEA]/) | %30
 z/ (!tenuto![DF_B]!tenuto![DFB]/) z/ (!tenuto![^CEA]!tenuto![CEA]/) | %31
 z/ (!tenuto![EGd]!tenuto![EGd]/) z/ (!tenuto![EA^c]!tenuto![EAc]/) | %32
 z/ (!tenuto![^CE_B]!tenuto![CEB]/) z/ (!tenuto![DFA]!tenuto![DFA]/) | %33
"_poco rit." z/ (!tenuto![^G,DE]!tenuto![G,DE]/) z/ (!tenuto![A,CE]!tenuto![A,CE]/) || %34
[M:3/4]!p!"_a tempo" ([FA]/C/[EG]/[FA]/) G3 G | %35
"_cresc." ([FA]/A,/[EG]/_B,/) ([FA]/A,/[EG]/B,/) ([FA]/A,/[_A=B]/=D/) | %36
"_cresc." ([=Ac]/E/[^GB]/[Ac]/) B3 B |!f! !>![ce]2 !>![ce]2 !>![Ad]2 | !>![Ac]2 !>![Ad]2 E2 | %39
"_a tempo.""^marcato." AA AG/F/ GE | %40
{/G} F"_dim."E/D/ .E/.D/.C/.B,/[I:staff +1] .A,/.G,/.F,/[I:staff -1] x/ || %41
[M:2/4]!p! z2 .[DFA].[DFA] | (^GA/B/ [CE]2) | ([B,D].[CE]/.[DF]/ .[EG]/.[DF]/.[CE]/.[B,D]/) | %44
 .[A,C][I:staff +1][D,^G,B,][I:staff -1] z2 | %45
"_legatissimo" z z/ [A,C]/ z/ (!tenuto![B,DA]!tenuto![B,DA]/) | %46
 z/ (!tenuto![CEA]!tenuto![CEA]/) z/ (!tenuto![DE^G]!tenuto![DEG]/) | %47
 z/ (!tenuto![CEA]!tenuto![CEA]/) z/ (!tenuto![CE=G]!tenuto![CEG]/) | %48
 z/ (!tenuto![CEG]!tenuto![CEG]/) z/ (!tenuto![B,FG]!tenuto![B,FG]/) | %49
 z/ (!tenuto![B,E^G]!tenuto![B,EG]/) z/ (!tenuto![^CEA]!tenuto![CEA]/) | %50
"_cresc." z/ (!tenuto![DF_B]!tenuto![DFB]/) z/ (!tenuto![^CEA]!tenuto![CEA]/) | %51
 z/ (!tenuto![EGd]!tenuto![EGd]/) z/ (!tenuto![EA^c]!tenuto![EAc]/) | %52
 z/ (!tenuto![^CE_B]!tenuto![CEB]/) z/ (!tenuto![DFA]!tenuto![DFA]/) | %53
"_poco rit." z/ (!tenuto![^G,DE]!tenuto![G,DE]/) z/ (!tenuto![A,CE]!tenuto![A,CE]/) || %54
[M:3/4]!p! ([FA]/"_a tempo."C/[EG]/[FA]/) G3 G | %55
 ([FA]/A,/[EG]/_B,/) ([FA]/A,/[EG]/B,/) ([FA]/A,/[_A=B]/=D/) | %56
"_cresc." ([=Ac]/E/[^GB]/[Ac]/) B3 B |!f! !>![ce]2 !>![ce]2 !>![Ad]2 | !>!c2 !>!d2 !>!E2 | %59
"_a tempo."!pp! aa (a=g/f/ ge) |{/g} (fe/d/ ec{/e} dc/d/) ||[M:2/4] !arpeggio![E^GBe]4 | z4 | z4 | %64
 z2!pp! z[I:staff +1] [D,E,^G,B,] | [C,E,A,][I:staff -1] z z2 |] %66
V:4
 E, | (D,E,/F,/ .C).C | (B,A,/^G,/ A,>=G,) | (F,E,/D,/ .C,/.D,/.E,/.F,/) | .^F,E,, z2 | %5
 z"_ben cantando" E, (D,E,/F,/) | ([A,,E,]A,) (B,C/B,/ | A,E, =G,2) | (G,,C, D,E,/F,/ | %9
 E,2) A,,E, | (D,E,/F,/ E,A,) | (_B,=C/B,/ A,E, | G,3 F,) | (E,C,/)=B,,/ A,,=G,, || %14
[M:3/4] [G,,,G,,] ([_B,_D]/[A,C]/ [B,D]/) z/ (G, E,_D,) | (C,_D, C,D, C,F,) | %16
 [A,,E,] ([B,D]/[A,C]/ [B,D]/) z/ (D B,_A,) | [C,G,]2 ([C,,C,]G,,) ([D,,D,]A,,) | %18
 ([A,,A,]E,) ([D,,D,]A,,) !>!E,,2 | [A,,,E,,]6 | [A,,,E,,]4 z3/2 .E,/ ||[M:2/4] (D,E,/F,/ .C).C | %22
 (B,A,/^G,/ A,>=G,) | (F,.E,/.D,/ .C,/.D,/.E,/.F,/) | .^F,!>!E,, z2 | %25
 z"_ben cantando" E, (D,E,/F,/) | ([A,,E,]A,) (B,C/B,/) | A,E, =G,2 | ([G,,,G,,]C, D,E,/F,/ | %29
 E,2) [A,,,A,,]E, | (D,E,/F,/ E,A,) | (_B,=C/B,/ A,E,) | (G,3 F, |!>(! E,C,/=B,,/ A,,=G,,)!>)! || %34
[M:3/4] [G,,,G,,] ([_B,_D]/[A,C]/ [B,D]/) z/ (G, E,_D,) | (C,_D, C,D, C,F,) | %36
 [A,,E,] ([B,D]/[A,C]/ [B,D]/) z/ (D B,_A,) | [C,G,]2 ([C,,C,]G,,) ([D,,D,]A,,) | %38
 ([A,,A,]E,) ([D,,D,]A,,) !>!E,,2 | [A,,,E,,]6 | [A,,,E,,]4 z3/2 .E,/ ||[M:2/4] (D,E,/F,/ .C).C | %42
 (B,A,/^G,/ A,>=G,) | (F,.E,/.D,/ .C,/.D,/.E,/.F,/) | .^F,!>!E,, z2 | %45
 z"_ben cantando" E, (D,E,/F,/) | ([A,,E,]A,) (B,C/B,/ | A,E, =G,2) | ([G,,,G,,]C, D,E,/F,/ | %49
 E,2) [A,,,A,,]E, | (D,E,/F,/ E,A,) | (_B,=C/B,/ A,E, | G,3 F,) |!>(! (E,C,/=B,,/ A,,=G,,)!>)! || %54
[M:3/4] [G,,,G,,] ([_B,_D]/[A,C]/ [B,D]/) z/ (G, E,_D,) | (C,_D, C,D, C,F,) | %56
 [A,,E,] ([B,D]/[A,C]/ [B,D]/) z/ (D B,_A,) | [C,G,]2 ([C,,C,]G,,) ([D,,D,]A,,) | %58
 ([A,,A,]E,) ([D,,D,]A,,) !>!E,,2 | [F,,,C,,F,,]6 | [F,,,C,,F,,]4 z"_marc." E, || %61
[M:2/4] (!arpeggio![E,,D,]E,/F,/ .A,).A, | (^G,A,/B,/!>(! E,2-) | E,2!>)! (D,E,/F,/) | %64
 .=G,/.F,/.E,/.D,/ .C,.E,, | A,,, z z2 |] %66
V:5
 x | x4 | [DF]2 x2 | x4 | x4 | x4 | x4 | x4 | x4 | x4 | x4 | x4 | x4 | x4 || %14
[M:3/4] x2 (E/_D/E/D/ E/D/E/D/) | x6 | x2 (^G/F/)G/F/ G/F/G/F/ | %17
 ([ce]/[EG])[EG]/ ([ce]/[EG])[EG]/ ([Ad]/[DF])[DF]/ | %18
 ([Ac]/[CE])[CE]/ ([Ad]/[DF])"_rit."[DF]/ E/[I:staff +1][E,^G,D]/- [E,G,D] | %19
[I:staff -1] A/A,/A/A,/ A/A,/ x G/A,/E/A,/ | F/A,/E/D/ x4 ||[M:2/4] x4 | [DF]2 x2 | x4 | x4 | x4 | %26
 x4 | x4 | x4 | x4 | x4 | x4 | x4 | x4 ||[M:3/4] x2 (E/_D/E/D/ E/D/E/D/) | x6 | %36
 x2 (^G/F/G/F/ G/F/B/F/) | (c/[EG][EG]/) (c/[EG][EG]/) (A/[DF][DF]/) | %38
 (A/[CE])[CE]/ (A/[DF])"_rit."[DF]/ E/[I:staff +1][E,^G,D]/- [E,G,D] | %39
[I:staff -1] A/A,/A/A,/ A/A,/ x G/A,/E/A,/ | F/A,/ x5 ||[M:2/4] x4 | [DF]2 x2 | x4 | x4 | x4 | x4 | %47
 x4 | x4 | x4 | x4 | x4 | x4 | x4 ||[M:3/4] x2 (E/_D/E/D/ E/D/E/"_cresc."D/) | x6 | %56
 x2 (^G/F/G/F/ G/F/G/F/) | (c/[EG][EG]/) (c/[EG][EG]/) (A/[DF][DF]/) | %58
 A/[CE][CE]/ A/[DF]"_rit."[DF]/ E/[I:staff +1][E,^G,D]/- [E,G,D] | %59
[I:staff -1] a/A/a/A/ a/A/ z g/A/e/A/ | f/A/ z e/A/c/A/ x2 ||[M:2/4] x4 | x4 | x4 | x4 | x4 |] %66
V:6
 x | x4 | x4 | x4 | x4 | x4 | x4 | x4 | G,,,2 x2 | x2 A,,,2 | x4 | x4 | z2 D,,2 | E,,2 x2 || %14
[M:3/4] x6 | F,,6 | x6 | x6 | x6 | x6 | x6 ||[M:2/4] x4 | x4 | x4 | x4 | x4 | x4 | x4 | x4 | x4 | %30
 x4 | x4 | z2 D,,2 | E,,2 x2 ||[M:3/4] x6 | F,,6 | x6 | x6 | x6 | x6 | x6 ||[M:2/4] x4 | x4 | x4 | %44
 x4 | x4 | x4 | x4 | x4 | x4 | x4 | x4 | z2 D,,2 | E,,2 x2 ||[M:3/4] x6 | F,,6 | x6 | x6 | x6 | %59
 x6 | x6 ||[M:2/4] x4 | x4 | x4 | x4 | x4 |] %66

